X: 509
T: Zao xikao
%%abc-version 2.0
%%abcx-abcm2ps-target-version 5.9.1 (29 Sep 2008)
%%abc-creator hum2abc beta
%%abcx-conversion-date 2013/10/02 07:52:30
%%abc-edited-by Helmut Schaffrath
%%humdrum-veritas 2849489680
%%humdrum-veritas-data 1896225691
%%continueall 1
%%barnumbers 0
L: 1/16
M: 2/4
K: F
G2 F D C2 A d [I:setbarnb 1]| 
c6d2 | 
f2 f d c d A G | 
F6D2 | 
G Ac4f2 | 
c d A G F2 D2 | 
A G A A G2 F D | 
C8 |]  



